sources/design/Outline/ഥ.svg

<svg:svg xmlns:cc="http://creativecommons.org/ns#" xmlns:dc="http://purl.org/dc/elements/1.1/" xmlns:inkscape="http://www.inkscape.org/namespaces/inkscape" xmlns:rdf="http://www.w3.org/1999/02/22-rdf-syntax-ns#" xmlns:sodipodi="http://sodipodi.sourceforge.net/DTD/sodipodi-0.dtd" xmlns:svg="http://www.w3.org/2000/svg" xml:space="preserve" width="1000" height="1000" version="1.1" style="clip-rule:evenodd;fill-rule:evenodd;image-rendering:optimizeQuality;shape-rendering:geometricPrecision;text-rendering:geometricPrecision" viewBox="0 0 1000 1000" id="svg10" sodipodi:docname="ഥ.svg" inkscape:version="1.1.1 (3bf5ae0d25, 2021-09-20)"><svg:text text-anchor="middle" x="484.73303" y="779.55475" id="bottom" inkscape:label="bottom" style="clip-rule:evenodd;fill-rule:evenodd;image-rendering:optimizeQuality;shape-rendering:geometricPrecision;text-rendering:geometricPrecision">✛</svg:text><svg:metadata id="metadata14"><rdf:RDF><cc:Work rdf:about=""><dc:format>image/svg+xml</dc:format><dc:type rdf:resource="http://purl.org/dc/dcmitype/StillImage" /></cc:Work></rdf:RDF></svg:metadata><sodipodi:namedview pagecolor="#ffffff" bordercolor="#666666" borderopacity="1" objecttolerance="10" gridtolerance="10" guidetolerance="10" inkscape:pageopacity="0" inkscape:pageshadow="2" inkscape:window-width="1920" inkscape:window-height="1009" id="namedview12" showgrid="false" inkscape:zoom="0.84890884" inkscape:cx="405.81507" inkscape:cy="532.44822" inkscape:window-x="0" inkscape:window-y="0" inkscape:window-maximized="1" inkscape:current-layer="svg10" showguides="true" inkscape:guide-bbox="true" inkscape:document-rotation="0" inkscape:pagecheckerboard="0"><sodipodi:guide position="0,1000" orientation="0,1" id="guide16" inkscape:label="" inkscape:locked="true" inkscape:color="rgb(0,0,255)" /><sodipodi:guide position="1763.3122,2036.1693" orientation="1000,0" id="guide18" /><sodipodi:guide position="0,200" orientation="0,1" id="guide20" inkscape:label="base" inkscape:locked="true" inkscape:color="rgb(0,0,255)" /><inkscape:grid type="xygrid" id="grid24" originx="-473.37552" originy="-489.69235" /><sodipodi:guide position="0,0" orientation="0,1" id="guide34" inkscape:label="bottom" inkscape:locked="true" inkscape:color="rgb(0,0,255)" /><sodipodi:guide position="225.05109,1693.3186" orientation="0,1" id="guide44" inkscape:label="" inkscape:locked="false" inkscape:color="rgb(0,0,255)" /><sodipodi:guide position="0,900" orientation="0,1" id="guide46" inkscape:label="" inkscape:locked="true" inkscape:color="rgb(0,0,255)" /><sodipodi:guide position="632.91755,734.15767" orientation="-1,0" id="guide841" inkscape:label="width" inkscape:locked="false" inkscape:color="rgb(0,0,255)" /></sodipodi:namedview>
 <svg:defs id="defs4"><inkscape:path-effect effect="fillet_chamfer" id="path-effect853" is_visible="true" lpeversion="1" satellites_param="F,0,1,1,0,18.41768,0,1 @ F,0,1,1,0,18.41768,0,1 @ F,0,0,1,0,0,0,1 @ F,0,0,1,0,0,0,1 @ F,0,0,1,0,0,0,1 @ F,0,0,1,0,0,0,1 @ F,0,0,1,0,0,0,1 @ F,0,0,1,0,0,0,1 @ F,0,0,1,0,0,0,1 @ F,0,0,1,0,0,0,1 @ F,0,0,1,0,0,0,1 @ F,0,0,1,0,0,0,1 @ F,0,0,1,0,0,0,1 @ F,0,0,1,0,0,0,1 @ F,0,0,1,0,0,0,1 @ F,0,0,1,0,0,0,1 @ F,0,0,1,0,0,0,1 @ F,0,0,1,0,0,0,1 @ F,0,1,1,0,18.41768,0,1 @ F,0,1,1,0,18.41768,0,1 @ F,0,0,1,0,0,0,1 @ F,0,0,1,0,0,0,1 @ F,0,0,1,0,0,0,1 @ F,0,0,1,0,0,0,1 @ F,0,0,1,0,0,0,1 @ F,0,0,1,0,0,0,1 @ F,0,0,1,0,0,0,1 @ F,0,0,1,0,0,0,1 @ F,0,0,1,0,0,0,1 @ F,0,0,1,0,0,0,1 @ F,0,0,1,0,0,0,1 @ F,0,0,1,0,0,0,1 @ F,0,0,1,0,0,0,1 @ F,0,0,1,0,0,0,1 @ F,0,0,1,0,0,0,1 @ F,0,0,1,0,0,0,1" unit="px" method="auto" mode="F" radius="0" chamfer_steps="1" flexible="false" use_knot_distance="true" apply_no_radius="true" apply_with_radius="true" only_selected="true" hide_knots="false" /><inkscape:path-effect effect="fillet_chamfer" id="path-effect852" is_visible="true" lpeversion="1" satellites_param="F,0,1,1,0,0,0,1 @ F,0,1,1,0,22.154029,0,1 @ F,0,1,1,0,0,0,1 @ F,0,1,1,0,0,0,1 @ F,0,1,1,0,0,0,1 @ F,0,0,1,0,0,0,1 @ F,0,0,1,0,0,0,1 @ F,0,0,1,0,0,0,1 @ F,0,0,1,0,0,0,1 @ F,0,0,1,0,0,0,1 @ F,0,0,1,0,0,0,1 @ F,0,0,1,0,0,0,1 @ F,0,0,1,0,0,0,1 @ F,0,0,1,0,0,0,1 @ F,0,0,1,0,0,0,1 @ F,0,0,1,0,0,0,1 @ F,0,0,1,0,0,0,1 @ F,0,0,1,0,0,0,1 @ F,0,0,1,0,0,0,1 @ F,0,1,1,0,22.154029,0,1 @ F,0,1,1,0,22.154029,0,1 @ F,0,0,1,0,0,0,1 @ F,0,0,1,0,0,0,1 @ F,0,0,1,0,0,0,1 @ F,0,0,1,0,0,0,1 @ F,0,0,1,0,0,0,1 @ F,0,0,1,0,0,0,1 @ F,0,0,1,0,0,0,1 @ F,0,0,1,0,0,0,1 @ F,0,0,1,0,0,0,1 @ F,0,0,1,0,0,0,1 @ F,0,0,1,0,0,0,1 @ F,0,0,1,0,0,0,1 @ F,0,0,1,0,0,0,1 @ F,0,0,1,0,0,0,1 @ F,0,1,1,0,0,0,1 @ F,0,1,1,0,0,0,1 @ F,0,1,1,0,0,0,1" unit="px" method="auto" mode="F" radius="0" chamfer_steps="1" flexible="false" use_knot_distance="true" apply_no_radius="true" apply_with_radius="true" only_selected="true" hide_knots="false" /><inkscape:path-effect effect="fillet_chamfer" id="path-effect849" is_visible="true" lpeversion="1" satellites_param="F,0,0,1,0,8.9507711,0,1 @ F,0,0,1,0,23.428801,0,1 @ F,0,0,1,0,0,0,1 @ F,0,0,1,0,0,0,1 @ F,0,0,1,0,0,0,1 @ F,0,0,1,0,0,0,1 @ F,0,0,1,0,0,0,1 @ F,0,0,1,0,0,0,1 @ F,0,0,1,0,0,0,1 @ F,0,0,1,0,0,0,1 @ F,0,0,1,0,0,0,1 @ F,0,0,1,0,0,0,1 @ F,0,0,1,0,0,0,1 @ F,0,0,1,0,0,0,1 @ F,0,0,1,0,0,0,1 @ F,0,0,1,0,0,0,1 @ F,0,0,1,0,0,0,1 @ F,0,0,1,0,0,0,1 @ F,0,0,1,0,0,0,1 @ F,0,0,1,0,22.742489,0,1 @ F,0,0,1,0,16.026569,0,1 @ F,0,0,1,0,0,0,1 @ F,0,0,1,0,0,0,1 @ F,0,0,1,0,0,0,1 @ F,0,0,1,0,0,0,1 @ F,0,0,1,0,0,0,1 @ F,0,0,1,0,0,0,1 @ F,0,0,1,0,0,0,1 @ F,0,0,1,0,0,0,1 @ F,0,0,1,0,0,0,1 @ F,0,0,1,0,0,0,1 @ F,0,0,1,0,0,0,1 @ F,0,0,1,0,0,0,1 @ F,0,0,1,0,0,0,1 @ F,0,0,1,0,0,0,1 @ F,0,0,1,0,0,0,1 @ F,0,0,1,0,0,0,1 @ F,0,0,1,0,0,0,1 @ F,0,0,1,0,0,0,1" unit="px" method="auto" mode="F" radius="0" chamfer_steps="1" flexible="false" use_knot_distance="true" apply_no_radius="true" apply_with_radius="true" only_selected="true" hide_knots="false" /><inkscape:path-effect effect="spiro" id="path-effect850" is_visible="true" lpeversion="1" /><inkscape:path-effect effect="spiro" id="path-effect851" is_visible="true" lpeversion="1" />
  <svg:style type="text/css" id="style2">
   
    .fil0 {fill:#EF7F1A;fill-rule:nonzero}
   
  </svg:style>
 <inkscape:path-effect effect="spiro" id="path-effect1214" is_visible="true" lpeversion="1" /><inkscape:path-effect effect="spiro" id="path-effect1195" is_visible="true" lpeversion="1" /><inkscape:path-effect effect="spiro" id="path-effect992" is_visible="true" lpeversion="1" /><inkscape:path-effect effect="spiro" id="path-effect1060" is_visible="true" lpeversion="1" /><inkscape:path-effect effect="spiro" id="path-effect1047" is_visible="true" lpeversion="1" /><inkscape:path-effect effect="spiro" id="path-effect1085" is_visible="true" lpeversion="1" /><inkscape:path-effect effect="spiro" id="path-effect1286" is_visible="true" lpeversion="1" /><inkscape:path-effect effect="spiro" id="path-effect1305" is_visible="true" lpeversion="1" /></svg:defs>
 
<svg:g id="path848"><svg:path style="color:#000000;clip-rule:nonzero;fill:#1a5fb4;fill-rule:nonzero;stroke-linecap:round;stroke-linejoin:round;-inkscape-stroke:none;paint-order:fill stroke markers;shape-rendering:auto" d="M 417.42578,68.894531 C 377.90322999999995,67.585512 339.41515999999996,80.196204 307.43359,101.40625 C 271.1395,125.47635 243.91047999999998,159.59836 224.9375,196.54492 C 196.10869,252.68399 185.89137,315.08713 185.54687,375.29492 C 185.20314000000002,435.37026 194.31899,493.55537 203.5918,549.88867 C 211.3059,596.7527100000001 219.44822,643.54665 227.90039000000002,690.2832000000001 C 213.66366000000002,688.0217200000001 200.48392,684.44509 188.91797000000003,678.6210900000001 C 165.69337000000002,666.9264100000001 146.13607000000002,645.1804200000001 133.68555000000003,619.6777300000001 C 112.76173000000003,576.8190200000001 110.48157000000003,523.5549300000001 113.45117000000003,469.0097700000001 C 116.52771000000003,412.50042000000013 123.94354000000003,356.6550900000001 138.66016000000002,303.2890600000001 C 151.13265,258.0607500000001 168.95609000000002,214.2746800000001 191.60352,173.1777300000001 C 197.78181,161.96635000000012 199.43716,147.6491600000001 194.70117,135.06055000000012 C 189.96518,122.47193000000011 178.97952999999998,112.55650000000011 166.65233999999998,108.37305000000012 L 75.712891,77.509766 C 50.789745,69.05165 21.075501,85.428048 15.1875,111.26953 C 7.3318183,145.74685 0.57998073,180.47539 -5.0546875,215.38477 C -21.169735,315.22493 -28.161338,416.86219 -23.505859,518.3418 C -20.737573,578.6846 -13.597432000000001,644.1766700000001 19.466797,702.32422 C 51.178442000000004,758.09308 104.15898,799.98727 165.26758,818.72656 C 209.15547,832.18503 253.2883,833.2018499999999 294.33398,833.47656 C 335.71827,833.7535499999999 378.80372,833.18572 422.33008,825.11133 C 465.99347,817.0115199999999 510.16725,801.06565 547.35937,771.99023 C 586.22334,741.60784 613.33365,700.00169 630.35547,656.05273 C 647.31729,612.25868 654.4852999999999,566.45256 657.24023,521.83984 C 662.87727,430.55502 650.25032,337.95431999999994 618.42383,251.78125 C 603.8786799999999,212.39897 584.62853,172.37081999999998 554.6074199999999,138.40625 C 524.3199099999999,104.14027999999999 482.86112999999995,76.906707 434.4101599999999,70.324219 C 428.73777999999993,69.55357599999999 423.0718599999999,69.081534 417.4257799999999,68.894531 L 417.42578,68.894531 M 415.49219,128.89258 C 419.13984999999997,128.99890000000002 422.75918,129.29168 426.33398,129.77734 C 456.99559,133.94299 487.06261,152.58776 509.65039,178.14258 C 532.5045700000001,203.99880000000002 549.0248,237.05609 562.14062,272.56836 C 590.90774,350.45790999999997 602.49607,434.8653 597.35352,518.14258 C 594.84109,558.82814 588.308,598.4845799999999 574.4043,634.38281 C 560.56059,670.1261499999999 538.8687500000001,702.46826 510.40430000000003,724.7207 C 483.11703000000006,746.05287 448.1949,759.28906 411.38672,766.1171899999999 C 374.44151,772.97074 335.19468,773.74735 294.73633,773.47656 C 254.67244,773.2084199999999 216.51862,771.6831199999999 182.85937,761.36133 C 136.63392,747.18604 95.407304,714.49015 71.625,672.66602 C 46.48267,628.45011 39.059815,572.8824 36.431641,515.59375 C 31.986319,418.69512 38.648734,321.15464 54.177734,224.94531 C 58.818735,196.19217 64.411277,167.59933 70.617187,139.14258 L 130.875,159.5918 C 109.82822,200.29099 93.002398,243.15561 80.818359,287.33789 C 64.6278,346.0488 56.782735,406.16885 53.539062,465.74805 C 50.385323,523.67536 51.275097,587.63824 79.767578,646.0 C 97.06804,681.43691 124.58958,713.40451 161.93358999999998,732.20898 C 206.30313999999998,754.55114 253.68000999999998,754.1188 294.60742,753.76953 C 324.61449,753.51345 356.17784,753.0920100000001 388.55273,747.6679700000001 C 421.03634999999997,742.22571 454.39468,731.5769500000001 483.7168,711.24219 C 520.66723,685.6172200000001 545.86793,648.23621 561.41797,608.99219 C 583.08448,554.3118800000001 586.81849,495.95576000000005 583.16602,440.67578000000003 C 579.65041,387.46729000000005 568.93015,331.72304 540.12891,282.2207 C 526.21685,258.30926 507.71141,235.41026000000002 482.84375,218.45312 C 457.71116,201.31534000000002 426.61828,190.98679 394.02539,194.18555 C 364.73378,197.06031000000002 338.48585,210.50144 318.12305000000003,229.39844 C 297.91901,248.14809 284.01901000000004,271.56095 275.18359000000004,295.86523 C 259.93747,337.80398 259.63557000000003,381.38872 263.71094000000005,421.55664 C 268.36341000000004,467.41272000000004 279.08626000000004,512.55564 295.34961000000004,555.59961 C 307.39322000000004,587.47525 322.63673000000006,618.07542 340.46680000000003,647.09961 L 286.15039,675.1543 C 278.04513000000003,630.2067000000001 270.21308,585.2106200000001 262.79492,540.14453 C 253.58652999999998,484.20254000000006 245.23761,429.34767000000005 245.54492,375.63867000000005 C 245.85147999999998,322.06214000000006 255.16037,269.03403000000003 278.31055,223.95312000000004 C 293.44187,194.48753000000005 314.67186999999996,168.60274000000004 340.59569999999997,151.41016000000005 C 363.05481999999995,136.51536000000004 389.95858,128.14831000000004 415.49218999999994,128.89258000000004 L 415.49219,128.89258 M 405.94141,253.63477 C 420.26737,253.75994 435.81271000000004,259.00507 449.04102,268.02539 C 464.42401,278.51498000000004 477.67977,294.19666 488.26758,312.39453000000003 C 510.37689,350.39506000000006 520.1381700000001,396.82406000000003 523.29687,444.63086000000004 C 526.58163,494.34544000000005 522.7319200000001,543.7470500000001 505.63672,586.89062 C 493.51394000000005,617.48519 474.30283000000003,644.75309 449.52344000000005,661.9375 C 433.09671000000003,673.32936 413.06805,680.92716 391.6191400000001,685.75977 C 406.4690800000001,670.57321 410.08425000000005,644.71398 398.45898000000005,626.90625 C 379.5175,597.89144 363.72256,566.79873 351.47852,534.39258 C 337.03693,496.17024 327.52083,456.07372 323.4043,415.5 C 319.82083,380.1804 320.89511999999996,345.73572 331.57227,316.36523 C 337.69235,299.53022 347.05579,284.40336 358.9375,273.37694999999997 C 370.66045,262.49787999999995 385.61424999999997,255.29917999999998 399.88671999999997,253.89843999999997 C 401.87323,253.70347999999996 403.89484,253.61687999999995 405.94140999999996,253.63476999999997 L 405.94141,253.63477" id="path2703" /></svg:g></svg:svg>

<svg:svg xmlns:cc="http://creativecommons.org/ns#" xmlns:dc="http://purl.org/dc/elements/1.1/" xmlns:inkscape="http://www.inkscape.org/namespaces/inkscape" xmlns:rdf="http://www.w3.org/1999/02/22-rdf-syntax-ns#" xmlns:sodipodi="http://sodipodi.sourceforge.net/DTD/sodipodi-0.dtd" xmlns:svg="http://www.w3.org/2000/svg" xml:space="preserve" width="1000" height="1000" version="1.1" style="clip-rule:evenodd;fill-rule:evenodd;image-rendering:optimizeQuality;shape-rendering:geometricPrecision;text-rendering:geometricPrecision" viewBox="0 0 1000 1000" id="svg10" sodipodi:docname="ഥ.svg" inkscape:version="1.1.1 (3bf5ae0d25, 2021-09-20)"><svg:text text-anchor="middle" x="484.73303" y="779.55475" id="bottom" inkscape:label="bottom" style="clip-rule:evenodd;fill-rule:evenodd;image-rendering:optimizeQuality;shape-rendering:geometricPrecision;text-rendering:geometricPrecision">✛</svg:text><svg:metadata id="metadata14"><rdf:RDF><cc:Work rdf:about=""><dc:format>image/svg+xml</dc:format><dc:type rdf:resource="http://purl.org/dc/dcmitype/StillImage" /></cc:Work></rdf:RDF></svg:metadata><sodipodi:namedview pagecolor="#ffffff" bordercolor="#666666" borderopacity="1" objecttolerance="10" gridtolerance="10" guidetolerance="10" inkscape:pageopacity="0" inkscape:pageshadow="2" inkscape:window-width="1920" inkscape:window-height="1009" id="namedview12" showgrid="false" inkscape:zoom="0.84890884" inkscape:cx="405.81507" inkscape:cy="532.44822" inkscape:window-x="0" inkscape:window-y="0" inkscape:window-maximized="1" inkscape:current-layer="svg10" showguides="true" inkscape:guide-bbox="true" inkscape:document-rotation="0" inkscape:pagecheckerboard="0"><sodipodi:guide position="0,1000" orientation="0,1" id="guide16" inkscape:label="" inkscape:locked="true" inkscape:color="rgb(0,0,255)" /><sodipodi:guide position="1763.3122,2036.1693" orientation="1000,0" id="guide18" /><sodipodi:guide position="0,200" orientation="0,1" id="guide20" inkscape:label="base" inkscape:locked="true" inkscape:color="rgb(0,0,255)" /><inkscape:grid type="xygrid" id="grid24" originx="-473.37552" originy="-489.69235" /><sodipodi:guide position="0,0" orientation="0,1" id="guide34" inkscape:label="bottom" inkscape:locked="true" inkscape:color="rgb(0,0,255)" /><sodipodi:guide position="225.05109,1693.3186" orientation="0,1" id="guide44" inkscape:label="" inkscape:locked="false" inkscape:color="rgb(0,0,255)" /><sodipodi:guide position="0,900" orientation="0,1" id="guide46" inkscape:label="" inkscape:locked="true" inkscape:color="rgb(0,0,255)" /><sodipodi:guide position="632.91755,734.15767" orientation="-1,0" id="guide841" inkscape:label="width" inkscape:locked="false" inkscape:color="rgb(0,0,255)" /></sodipodi:namedview>
 <svg:defs id="defs4"><inkscape:path-effect effect="fillet_chamfer" id="path-effect853" is_visible="true" lpeversion="1" satellites_param="F,0,1,1,0,18.41768,0,1 @ F,0,1,1,0,18.41768,0,1 @ F,0,0,1,0,0,0,1 @ F,0,0,1,0,0,0,1 @ F,0,0,1,0,0,0,1 @ F,0,0,1,0,0,0,1 @ F,0,0,1,0,0,0,1 @ F,0,0,1,0,0,0,1 @ F,0,0,1,0,0,0,1 @ F,0,0,1,0,0,0,1 @ F,0,0,1,0,0,0,1 @ F,0,0,1,0,0,0,1 @ F,0,0,1,0,0,0,1 @ F,0,0,1,0,0,0,1 @ F,0,0,1,0,0,0,1 @ F,0,0,1,0,0,0,1 @ F,0,0,1,0,0,0,1 @ F,0,0,1,0,0,0,1 @ F,0,1,1,0,18.41768,0,1 @ F,0,1,1,0,18.41768,0,1 @ F,0,0,1,0,0,0,1 @ F,0,0,1,0,0,0,1 @ F,0,0,1,0,0,0,1 @ F,0,0,1,0,0,0,1 @ F,0,0,1,0,0,0,1 @ F,0,0,1,0,0,0,1 @ F,0,0,1,0,0,0,1 @ F,0,0,1,0,0,0,1 @ F,0,0,1,0,0,0,1 @ F,0,0,1,0,0,0,1 @ F,0,0,1,0,0,0,1 @ F,0,0,1,0,0,0,1 @ F,0,0,1,0,0,0,1 @ F,0,0,1,0,0,0,1 @ F,0,0,1,0,0,0,1 @ F,0,0,1,0,0,0,1" unit="px" method="auto" mode="F" radius="0" chamfer_steps="1" flexible="false" use_knot_distance="true" apply_no_radius="true" apply_with_radius="true" only_selected="true" hide_knots="false" /><inkscape:path-effect effect="fillet_chamfer" id="path-effect852" is_visible="true" lpeversion="1" satellites_param="F,0,1,1,0,0,0,1 @ F,0,1,1,0,22.154029,0,1 @ F,0,1,1,0,0,0,1 @ F,0,1,1,0,0,0,1 @ F,0,1,1,0,0,0,1 @ F,0,0,1,0,0,0,1 @ F,0,0,1,0,0,0,1 @ F,0,0,1,0,0,0,1 @ F,0,0,1,0,0,0,1 @ F,0,0,1,0,0,0,1 @ F,0,0,1,0,0,0,1 @ F,0,0,1,0,0,0,1 @ F,0,0,1,0,0,0,1 @ F,0,0,1,0,0,0,1 @ F,0,0,1,0,0,0,1 @ F,0,0,1,0,0,0,1 @ F,0,0,1,0,0,0,1 @ F,0,0,1,0,0,0,1 @ F,0,0,1,0,0,0,1 @ F,0,1,1,0,22.154029,0,1 @ F,0,1,1,0,22.154029,0,1 @ F,0,0,1,0,0,0,1 @ F,0,0,1,0,0,0,1 @ F,0,0,1,0,0,0,1 @ F,0,0,1,0,0,0,1 @ F,0,0,1,0,0,0,1 @ F,0,0,1,0,0,0,1 @ F,0,0,1,0,0,0,1 @ F,0,0,1,0,0,0,1 @ F,0,0,1,0,0,0,1 @ F,0,0,1,0,0,0,1 @ F,0,0,1,0,0,0,1 @ F,0,0,1,0,0,0,1 @ F,0,0,1,0,0,0,1 @ F,0,0,1,0,0,0,1 @ F,0,1,1,0,0,0,1 @ F,0,1,1,0,0,0,1 @ F,0,1,1,0,0,0,1" unit="px" method="auto" mode="F" radius="0" chamfer_steps="1" flexible="false" use_knot_distance="true" apply_no_radius="true" apply_with_radius="true" only_selected="true" hide_knots="false" /><inkscape:path-effect effect="fillet_chamfer" id="path-effect849" is_visible="true" lpeversion="1" satellites_param="F,0,0,1,0,8.9507711,0,1 @ F,0,0,1,0,23.428801,0,1 @ F,0,0,1,0,0,0,1 @ F,0,0,1,0,0,0,1 @ F,0,0,1,0,0,0,1 @ F,0,0,1,0,0,0,1 @ F,0,0,1,0,0,0,1 @ F,0,0,1,0,0,0,1 @ F,0,0,1,0,0,0,1 @ F,0,0,1,0,0,0,1 @ F,0,0,1,0,0,0,1 @ F,0,0,1,0,0,0,1 @ F,0,0,1,0,0,0,1 @ F,0,0,1,0,0,0,1 @ F,0,0,1,0,0,0,1 @ F,0,0,1,0,0,0,1 @ F,0,0,1,0,0,0,1 @ F,0,0,1,0,0,0,1 @ F,0,0,1,0,0,0,1 @ F,0,0,1,0,22.742489,0,1 @ F,0,0,1,0,16.026569,0,1 @ F,0,0,1,0,0,0,1 @ F,0,0,1,0,0,0,1 @ F,0,0,1,0,0,0,1 @ F,0,0,1,0,0,0,1 @ F,0,0,1,0,0,0,1 @ F,0,0,1,0,0,0,1 @ F,0,0,1,0,0,0,1 @ F,0,0,1,0,0,0,1 @ F,0,0,1,0,0,0,1 @ F,0,0,1,0,0,0,1 @ F,0,0,1,0,0,0,1 @ F,0,0,1,0,0,0,1 @ F,0,0,1,0,0,0,1 @ F,0,0,1,0,0,0,1 @ F,0,0,1,0,0,0,1 @ F,0,0,1,0,0,0,1 @ F,0,0,1,0,0,0,1 @ F,0,0,1,0,0,0,1" unit="px" method="auto" mode="F" radius="0" chamfer_steps="1" flexible="false" use_knot_distance="true" apply_no_radius="true" apply_with_radius="true" only_selected="true" hide_knots="false" /><inkscape:path-effect effect="spiro" id="path-effect850" is_visible="true" lpeversion="1" /><inkscape:path-effect effect="spiro" id="path-effect851" is_visible="true" lpeversion="1" />
  <svg:style type="text/css" id="style2">
   
    .fil0 {fill:#EF7F1A;fill-rule:nonzero}
   
  </svg:style>
 <inkscape:path-effect effect="spiro" id="path-effect1214" is_visible="true" lpeversion="1" /><inkscape:path-effect effect="spiro" id="path-effect1195" is_visible="true" lpeversion="1" /><inkscape:path-effect effect="spiro" id="path-effect992" is_visible="true" lpeversion="1" /><inkscape:path-effect effect="spiro" id="path-effect1060" is_visible="true" lpeversion="1" /><inkscape:path-effect effect="spiro" id="path-effect1047" is_visible="true" lpeversion="1" /><inkscape:path-effect effect="spiro" id="path-effect1085" is_visible="true" lpeversion="1" /><inkscape:path-effect effect="spiro" id="path-effect1286" is_visible="true" lpeversion="1" /><inkscape:path-effect effect="spiro" id="path-effect1305" is_visible="true" lpeversion="1" /></svg:defs>
 
<svg:g id="path848"><svg:path style="color:#000000;clip-rule:nonzero;fill:#1a5fb4;fill-rule:nonzero;stroke-linecap:round;stroke-linejoin:round;-inkscape-stroke:none;shape-rendering:auto" d="m 417.42578,68.894531 c -39.52255,-1.309019 -78.01062,11.301673 -109.99219,32.511719 -36.29409,24.0701 -63.52311,58.19211 -82.49609,95.13867 -28.82881,56.13907 -39.04613,118.54221 -39.39063,178.75 -0.34373,60.07534 8.77212,118.26045 18.04493,174.59375 7.7141,46.86404 15.85642,93.65798 24.30859,140.39453 -14.23673,-2.26148 -27.41647,-5.83811 -38.98242,-11.66211 -23.2246,-11.69468 -42.7819,-33.44067 -55.23242,-58.94336 -20.92382,-42.85871 -23.20398,-96.1228 -20.23438,-150.66796 3.07654,-56.50935 10.49237,-112.35468 25.20899,-165.72071 12.47249,-45.22831 30.29593,-89.01438 52.94336,-130.11133 6.17829,-11.21138 7.83364,-25.52857 3.09765,-38.11718 -4.73599,-12.58862 -15.72164,-22.50405 -28.04883,-26.6875 L 75.712891,77.509766 C 50.789745,69.05165 21.075501,85.428048 15.1875,111.26953 7.3318183,145.74685 0.57998073,180.47539 -5.0546875,215.38477 -21.169735,315.22493 -28.161338,416.86219 -23.505859,518.3418 c 2.768286,60.3428 9.908427,125.83487 42.972656,183.98242 31.711645,55.76886 84.692183,97.66305 145.800783,116.40234 43.88789,13.45847 88.02072,14.47529 129.0664,14.75 41.38429,0.27699 84.46974,-0.29084 127.9961,-8.36523 43.66339,-8.09981 87.83717,-24.04568 125.02929,-53.1211 38.86397,-30.38239 65.97428,-71.98854 82.9961,-115.9375 16.96182,-43.79405 24.12983,-89.60017 26.88476,-134.21289 5.63704,-91.28482 -6.98991,-183.88552 -38.8164,-270.05859 -14.54515,-39.38228 -33.7953,-79.41043 -63.81641,-113.375 -30.28751,-34.26597 -71.74629,-61.499543 -120.19726,-68.082031 -5.67238,-0.770643 -11.3383,-1.242685 -16.98438,-1.429688 z m -1.93359,59.998049 c 3.64766,0.10632 7.26699,0.3991 10.84179,0.88476 30.66161,4.16565 60.72863,22.81042 83.31641,48.36524 22.85418,25.85622 39.37441,58.91351 52.49023,94.42578 28.76712,77.88955 40.35545,162.29694 35.2129,245.57422 -2.51243,40.68556 -9.04552,80.342 -22.94922,116.24023 -13.84371,35.74334 -35.53555,68.08545 -64,90.33789 -27.28727,21.33217 -62.2094,34.56836 -99.01758,41.39649 -36.94521,6.85355 -76.19204,7.63016 -116.65039,7.35937 -40.06389,-0.26814 -78.21771,-1.79344 -111.87696,-12.11523 C 136.63392,747.18604 95.407304,714.49015 71.625,672.66602 46.48267,628.45011 39.059815,572.8824 36.431641,515.59375 31.986319,418.69512 38.648734,321.15464 54.177734,224.94531 58.818735,196.19217 64.411277,167.59933 70.617187,139.14258 L 130.875,159.5918 C 109.82822,200.29099 93.002398,243.15561 80.818359,287.33789 64.6278,346.0488 56.782735,406.16885 53.539062,465.74805 50.385323,523.67536 51.275097,587.63824 79.767578,646 c 17.300462,35.43691 44.822002,67.40451 82.166012,86.20898 44.36955,22.34216 91.74642,21.90982 132.67383,21.56055 30.00707,-0.25608 61.57042,-0.67752 93.94531,-6.10156 32.48362,-5.44226 65.84195,-16.09102 95.16407,-36.42578 36.95043,-25.62497 62.15113,-63.00598 77.70117,-102.25 21.66651,-54.68031 25.40052,-113.03643 21.74805,-168.31641 -3.51561,-53.20849 -14.23587,-108.95274 -43.03711,-158.45508 -13.91206,-23.91144 -32.4175,-46.81044 -57.28516,-63.76758 -25.13259,-17.13778 -56.22547,-27.46633 -88.81836,-24.26757 -29.29161,2.87476 -55.53954,16.31589 -75.90234,35.21289 -20.20404,18.74965 -34.10404,42.16251 -42.93946,66.46679 -15.24612,41.93875 -15.54802,85.52349 -11.47265,125.69141 4.65247,45.85608 15.37532,90.999 31.63867,134.04297 12.04361,31.87564 27.28712,62.47581 45.11719,91.5 l -54.31641,28.05469 c -8.10526,-44.9476 -15.93731,-89.94368 -23.35547,-135.00977 -9.20839,-55.94199 -17.55731,-110.79686 -17.25,-164.50586 0.30656,-53.57653 9.61545,-106.60464 32.76563,-151.68555 15.13132,-29.46559 36.36132,-55.35038 62.28515,-72.54296 22.45912,-14.8948 49.36288,-23.26185 74.89649,-22.51758 z m -9.55078,124.74219 c 14.32596,0.12517 29.8713,5.3703 43.09961,14.39062 15.38299,10.48959 28.63875,26.17127 39.22656,44.36914 22.10931,38.00053 31.87059,84.42953 35.02929,132.23633 3.28476,49.71458 -0.56495,99.11619 -17.66015,142.25976 -12.12278,30.59457 -31.33389,57.86247 -56.11328,75.04688 -16.42673,11.39186 -36.45539,18.98966 -57.9043,23.82227 14.84994,-15.18656 18.46511,-41.04579 6.83984,-58.85352 C 379.5175,597.89144 363.72256,566.79873 351.47852,534.39258 337.03693,496.17024 327.52083,456.07372 323.4043,415.5 c -3.58347,-35.3196 -2.50918,-69.76428 8.16797,-99.13477 6.12008,-16.83501 15.48352,-31.96187 27.36523,-42.98828 11.72295,-10.87907 26.67675,-18.07777 40.94922,-19.47851 1.98651,-0.19496 4.00812,-0.28156 6.05469,-0.26367 z" id="path2703" /></svg:g></svg:svg>
